public/build/assets/logo-YPnRLkV5.svg

<svg width="162" height="40" viewBox="0 0 162 40" fill="none" xmlns="http://www.w3.org/2000/svg">
<g filter="url(#filter0_d)">
<path d="M14.7394 26.4684L15.895 30.6707H22.9162L23.8501 27.2352C20.6544 27.0099 17.6111 26.7513 14.7394 26.4684Z" fill="#FF9400"/>
<path d="M10.5357 26.0239V30.6707H4V25.1987C6.03605 25.4845 8.21874 25.7615 10.5357 26.0239Z" fill="#FF9400"/>
<path d="M14.2721 24.7692L10.3116 10.3668H10.1436C10.405 13.8247 10.5357 16.5113 10.5357 18.4267V24.3688C8.21637 24.1046 6.03357 23.8258 4 23.5382V2.48054H13.8222L19.5176 22.4952H19.667L25.2504 2.48054H35.0913V26.2056C32.7726 26.1131 30.5112 26.0017 28.3128 25.8738V18.311C28.3128 17.6683 28.3191 16.9548 28.3315 16.1707C28.3564 15.3866 28.4436 13.4648 28.5929 10.4054H28.4249L24.2899 25.6171C20.7567 25.3715 17.4087 25.0847 14.2721 24.7692Z" fill="#FF9400"/>
<path d="M28.3128 27.5215V30.6707H35.0913V27.852C32.773 27.7599 30.5117 27.6489 28.3128 27.5215Z" fill="#FF9400"/>
<path d="M40.2804 28.0229C40.5143 28.4581 40.7951 28.8522 41.1228 29.2053C42.2681 30.4393 43.8367 31.0563 45.8285 31.0563C47.4469 31.0563 48.7665 30.825 49.7873 30.3622C50.7038 29.9467 51.6053 29.21 52.4916 28.1522C48.2955 28.173 44.2168 28.126 40.2804 28.0229Z" fill="#FF9400"/>
<path d="M53.1223 28.1485L54.3436 30.6707H59.4041V28.057C57.2841 28.1049 55.1892 28.1349 53.1223 28.1485Z" fill="#FF9400"/>
<path d="M63.7097 27.9358L62.0371 30.6707H70.3468L72.0073 27.5663C69.2082 27.7216 66.4403 27.8438 63.7097 27.9358Z" fill="#FF9400"/>
<path d="M72.9164 25.8668C70.159 26.0271 67.4311 26.155 64.7386 26.2533L68.8529 19.5258L62.3919 8.82429H70.6829L73.8948 14.9559L77.1813 8.82429H85.491L78.8619 19.5258L82.3676 25.196C79.8304 25.4092 77.3119 25.5937 74.8163 25.7515L73.8948 24.0377L72.9164 25.8668Z" fill="#FF9400"/>
<path d="M75.6731 27.3451L77.4614 30.6707H85.7524L83.3373 26.7644C80.7624 26.9868 78.2062 27.1797 75.6731 27.3451Z" fill="#FF9400"/>
<path d="M88.4974 26.2809V30.6707H95.7987V25.4647C93.3535 25.7647 90.9186 26.0362 88.4974 26.2809Z" fill="#FF9400"/>
<path d="M100.897 24.7995V30.6707H108.198V23.7036C105.759 24.0988 103.324 24.4636 100.897 24.7995Z" fill="#FF9400"/>
<path d="M108.198 22.0382C105.759 22.4353 103.324 22.8019 100.897 23.1395V8.82429H106.405L107.32 11.5238H107.75C108.31 10.5211 109.119 9.75625 110.177 9.22921C111.248 8.70217 112.462 8.43865 113.819 8.43865C116.869 8.43865 119.01 9.39632 120.242 11.3117H120.821C121.419 10.4118 122.247 9.71126 123.305 9.20993C124.375 8.69575 125.552 8.43865 126.834 8.43865C129.336 8.43865 131.185 9.10067 132.38 10.4247C133.575 11.7487 134.173 13.7605 134.173 16.4599V16.5824C131.744 17.2175 129.307 17.8163 126.866 18.3804C126.832 17.1074 126.634 16.1394 126.274 15.4766C125.888 14.731 125.272 14.3582 124.425 14.3582C123.305 14.3582 122.483 14.8531 121.96 15.8429C121.511 16.6926 121.255 17.9544 121.192 19.6283C118.747 20.1392 116.301 20.6167 113.856 21.0623V18.793C113.856 17.3148 113.669 16.2093 113.296 15.4766C112.922 14.731 112.319 14.3582 111.484 14.3582C110.339 14.3582 109.505 14.8852 108.982 15.9393C108.459 16.9934 108.198 18.7159 108.198 21.1069V22.0382Z" fill="#FF9400"/>
<path d="M113.856 22.7329V30.6707H121.176V21.31C118.736 21.8168 116.295 22.2906 113.856 22.7329Z" fill="#FF9400"/>
<path d="M126.871 20.0648V30.6707H134.173V18.2792C131.745 18.9098 129.311 19.5045 126.871 20.0648Z" fill="#FF9400"/>
<path fill-rule="evenodd" clip-rule="evenodd" d="M149.117 13.887C150.171 14.1923 150.699 15.05 150.699 16.4599V16.7684L147.169 16.8841C144.194 17.0255 141.922 17.6683 140.354 18.8123C138.785 19.9435 138.001 21.6725 138.001 23.9992C138.001 26.2359 138.573 27.9712 139.719 29.2053C140.864 30.4393 142.433 31.0563 144.424 31.0563C146.043 31.0563 147.362 30.825 148.383 30.3622C149.404 29.8994 150.406 29.0382 151.39 27.7784H151.539L152.939 30.6707H158V16.3442C158 14.2916 157.494 12.6135 156.482 11.3098C154.045 12.2123 151.589 13.0708 149.117 13.887ZM149.784 24.8668C149.161 25.4453 148.408 25.7345 147.524 25.7345C146.142 25.7345 145.451 25.0661 145.451 23.7292C145.451 21.9938 146.653 21.0812 149.055 20.9912L150.736 20.9141V22.6109C150.736 23.5364 150.419 24.2884 149.784 24.8668Z" fill="#FF9400"/>
<path d="M155.185 10.0405C153.753 8.97262 151.846 8.43865 149.466 8.43865C145.707 8.43865 142.594 9.09424 140.13 10.4054L141.843 14.4449C146.338 13.1126 150.793 11.6479 155.185 10.0405Z" fill="#FF9400"/>
<path d="M95.7987 23.8078C93.3536 24.1091 90.9187 24.3819 88.4974 24.6277V8.82429H95.7987V23.8078Z" fill="#FF9400"/>
<path fill-rule="evenodd" clip-rule="evenodd" d="M59.4041 26.4112C52.5237 26.5674 45.9084 26.5347 39.6597 26.3603C39.4898 25.6476 39.4049 24.8606 39.4049 23.9992C39.4049 21.6725 40.1892 19.9435 41.7577 18.8123C43.3263 17.6683 45.5982 17.0255 48.5735 16.8841L52.1028 16.7684V16.4599C52.1028 14.6603 51.2438 13.7605 49.5259 13.7605C47.9822 13.7605 46.0215 14.3004 43.6437 15.3801L41.5336 10.4054C43.9985 9.09424 47.1108 8.43865 50.8704 8.43865C53.5843 8.43865 55.6819 9.1328 57.1633 10.5211C58.6572 11.9094 59.4041 13.8504 59.4041 16.3442V26.4112ZM51.1878 24.8668C50.5654 25.4453 49.8122 25.7345 48.9283 25.7345C47.5465 25.7345 46.8556 25.0661 46.8556 23.7292C46.8556 21.9938 48.0569 21.0812 50.4596 20.9912L52.1402 20.9141V22.6109C52.1402 23.5364 51.8227 24.2884 51.1878 24.8668Z" fill="#FF9400"/>
<path d="M89.2257 0.860861C88.6157 1.41361 88.3107 2.25559 88.3107 3.38679C88.3107 5.59778 89.5991 6.70328 92.1761 6.70328C94.7779 6.70328 96.0788 5.59778 96.0788 3.38679C96.0788 2.2813 95.7676 1.44575 95.1451 0.880143C94.5227 0.31454 93.533 0.0317383 92.1761 0.0317383C90.8191 0.0317383 89.8357 0.308112 89.2257 0.860861Z" fill="#FF9400"/>
</g>
<defs>
<filter id="filter0_d" x="0" y="0.0317383" width="162" height="39.0246" filterUnits="userSpaceOnUse" color-interpolation-filters="sRGB">
<feFlood flood-opacity="0" result="BackgroundImageFix"/>
<feColorMatrix in="SourceAlpha" type="matrix" values="0 0 0 0 0 0 0 0 0 0 0 0 0 0 0 0 0 0 127 0" result="hardAlpha"/>
<feOffset dy="4"/>
<feGaussianBlur stdDeviation="2"/>
<feComposite in2="hardAlpha" operator="out"/>
<feColorMatrix type="matrix" values="0 0 0 0 0 0 0 0 0 0 0 0 0 0 0 0 0 0 0.25 0"/>
<feBlend mode="normal" in2="BackgroundImageFix" result="effect1_dropShadow"/>
<feBlend mode="normal" in="SourceGraphic" in2="effect1_dropShadow" result="shape"/>
</filter>
</defs>
</svg>

<svg width="162" height="40" fill="none" xmlns="http://www.w3.org/2000/svg"><g filter="url(#a)" fill="#FF9400"><path d="m14.74 26.468 1.155 4.203h7.021l.934-3.436a329.272 329.272 0 0 1-9.11-.767Zm-4.204-.444v4.647H4v-5.472c2.036.285 4.219.563 6.536.825Zm3.736-1.254-3.96-14.403h-.168c.261 3.458.392 6.144.392 8.06v5.942c-2.32-.264-4.502-.543-6.536-.83V2.48h9.822l5.696 20.014h.149L25.25 2.481h9.841v23.725c-2.318-.093-4.58-.204-6.778-.332V18.31c0-.643.006-1.356.018-2.14.025-.784.113-2.706.262-5.766h-.168L24.29 25.617a326.533 326.533 0 0 1-10.018-.848Zm14.041 2.751v3.15h6.778v-2.819a373.73 373.73 0 0 1-6.778-.33Zm11.967.502c.234.435.515.83.843 1.182 1.145 1.234 2.714 1.851 4.706 1.851 1.618 0 2.938-.231 3.958-.694.917-.415 1.818-1.152 2.705-2.21-4.197.021-8.275-.026-12.212-.13Zm12.842.125 1.222 2.523h5.06v-2.614c-2.12.048-4.215.078-6.282.091Zm10.588-.212-1.673 2.735h8.31l1.66-3.105c-2.799.156-5.567.278-8.297.37Zm9.206-2.069c-2.757.16-5.485.288-8.177.386l4.114-6.727-6.461-10.702h8.29l3.213 6.132 3.286-6.132h8.31l-6.63 10.702 3.507 5.67a362.2 362.2 0 0 1-7.552.555l-.921-1.713-.979 1.829Zm2.757 1.478 1.788 3.326h8.291l-2.415-3.907c-2.575.223-5.13.416-7.664.581Zm12.824-1.065v4.39H95.8v-5.205c-2.446.3-4.88.571-7.302.816Zm12.4-1.48v5.87h7.301v-6.966c-2.439.395-4.874.76-7.301 1.095Zm7.301-2.762c-2.439.397-4.874.764-7.301 1.102V8.824h5.508l.915 2.7h.43c.56-1.003 1.369-1.768 2.427-2.295 1.071-.527 2.285-.79 3.642-.79 3.05 0 5.191.957 6.423 2.873h.579c.598-.9 1.426-1.6 2.484-2.102 1.07-.514 2.247-.771 3.529-.771 2.502 0 4.351.662 5.546 1.986 1.195 1.324 1.793 3.335 1.793 6.035v.122a262.857 262.857 0 0 1-7.307 1.798c-.034-1.273-.232-2.24-.592-2.903-.386-.746-1.002-1.119-1.849-1.119-1.12 0-1.942.495-2.465 1.485-.449.85-.705 2.111-.768 3.785a287.54 287.54 0 0 1-7.336 1.434v-2.269c0-1.478-.187-2.584-.56-3.316-.374-.746-.977-1.119-1.812-1.119-1.145 0-1.979.527-2.502 1.581-.523 1.054-.784 2.777-.784 5.168v.931Zm5.658.695v7.938h7.32V21.31c-2.44.507-4.881.98-7.32 1.423Zm13.015-2.668V30.67h7.302V18.279c-2.428.63-4.862 1.226-7.302 1.786Z"/><path fill-rule="evenodd" clip-rule="evenodd" d="M149.117 13.887c1.054.305 1.582 1.163 1.582 2.573v.308l-3.53.116c-2.975.142-5.247.784-6.815 1.928-1.569 1.131-2.353 2.86-2.353 5.187 0 2.237.572 3.972 1.718 5.206 1.145 1.234 2.714 1.851 4.705 1.851 1.619 0 2.938-.231 3.959-.694 1.021-.463 2.023-1.324 3.007-2.584h.149l1.4 2.893H158V16.344c0-2.052-.506-3.73-1.518-5.034a218.204 218.204 0 0 1-7.365 2.577Zm.667 10.98c-.623.578-1.376.867-2.26.867-1.382 0-2.073-.668-2.073-2.005 0-1.735 1.202-2.648 3.604-2.738l1.681-.077v1.697c0 .925-.317 1.677-.952 2.256Z"/><path d="M155.185 10.04c-1.432-1.067-3.339-1.601-5.719-1.601-3.759 0-6.872.655-9.336 1.966l1.713 4.04a224.238 224.238 0 0 0 13.342-4.405ZM95.799 23.808c-2.445.301-4.88.574-7.302.82V8.824H95.8v14.984Z"/><path fill-rule="evenodd" clip-rule="evenodd" d="M59.404 26.411a390.98 390.98 0 0 1-19.744-.05c-.17-.713-.255-1.5-.255-2.362 0-2.326.784-4.055 2.353-5.187 1.568-1.144 3.84-1.787 6.816-1.928l3.529-.116v-.308c0-1.8-.86-2.7-2.577-2.7-1.544 0-3.505.54-5.882 1.62l-2.11-4.975c2.465-1.31 5.577-1.966 9.336-1.966 2.714 0 4.812.694 6.293 2.082 1.494 1.388 2.241 3.33 2.241 5.823v10.067Zm-8.216-1.544c-.623.578-1.376.867-2.26.867-1.381 0-2.072-.668-2.072-2.005 0-1.735 1.2-2.648 3.604-2.738l1.68-.077v1.697c0 .925-.317 1.677-.952 2.256Z"/><path d="M89.226.86c-.61.554-.915 1.396-.915 2.527 0 2.21 1.288 3.316 3.865 3.316 2.602 0 3.903-1.105 3.903-3.316 0-1.106-.311-1.941-.934-2.507-.622-.565-1.612-.848-2.969-.848-1.357 0-2.34.276-2.95.829Z"/></g><defs><filter id="a" x="0" y=".032" width="162" height="39.025" filterUnits="userSpaceOnUse" color-interpolation-filters="sRGB"><feFlood flood-opacity="0" result="BackgroundImageFix"/><feColorMatrix in="SourceAlpha" values="0 0 0 0 0 0 0 0 0 0 0 0 0 0 0 0 0 0 127 0" result="hardAlpha"/><feOffset dy="4"/><feGaussianBlur stdDeviation="2"/><feComposite in2="hardAlpha" operator="out"/><feColorMatrix values="0 0 0 0 0 0 0 0 0 0 0 0 0 0 0 0 0 0 0.25 0"/><feBlend in2="BackgroundImageFix" result="effect1_dropShadow"/><feBlend in="SourceGraphic" in2="effect1_dropShadow" result="shape"/></filter></defs></svg>
